resources/icons/hicolor/scalable/actions/cm-wired-acquiring-symbolic.svg

<?xml version="1.0" encoding="UTF-8"?>
<svg height="16px" viewBox="0 0 16 16" width="16px" xmlns="http://www.w3.org/2000/svg">
    <g fill="#2e3436">
        <path d="m 3 6 c -1.105469 0 -2 0.894531 -2 2 s 0.894531 2 2 2 s 2 -0.894531 2 -2 s -0.894531 -2 -2 -2 z m 5 0 c -1.105469 0 -2 0.894531 -2 2 s 0.894531 2 2 2 s 2 -0.894531 2 -2 s -0.894531 -2 -2 -2 z m 5 0 c -1.105469 0 -2 0.894531 -2 2 s 0.894531 2 2 2 s 2 -0.894531 2 -2 s -0.894531 -2 -2 -2 z m 0 0"/>
        <path d="m 6 0 c -0.554688 0 -1 0.445312 -1 1 v 3 c 0 0.554688 0.445312 1 1 1 h 4 c 0.554688 0 1 -0.445312 1 -1 v -3 c 0 -0.554688 -0.445312 -1 -1 -1 z m -4 10.824219 v 0.175781 h -1 c -0.554688 0 -1 0.445312 -1 1 v 3 c 0 0.554688 0.445312 1 1 1 h 4 c 0.554688 0 1 -0.445312 1 -1 v -3 c 0 -0.554688 -0.445312 -1 -1 -1 h -2 c -0.351562 0 -0.6875 -0.0625 -1 -0.175781 z m 12 0 c -0.3125 0.113281 -0.648438 0.175781 -1 0.175781 h -2 c -0.554688 0 -1 0.445312 -1 1 v 3 c 0 0.554688 0.445312 1 1 1 h 4 c 0.554688 0 1 -0.445312 1 -1 v -3 c 0 -0.554688 -0.445312 -1 -1 -1 h -1 z m 0 0" fill-opacity="0.34902"/>
    </g>
</svg>

<svg width='16' height='16'
     xmlns:gpa='https://www.gtk.org/grappa'
     gpa:version='1'>
  <path d='M3.00 6.00C1.89 6.00 1.00 6.89 1.00 8.00C1.00 9.11 1.89 10.00 3.00 10.00C4.11 10.00 5.00 9.11 5.00 8.00C5.00 6.89 4.11 6.00 3.00 6.00ZM8.00 6.00C6.89 6.00 6.00 6.89 6.00 8.00C6.00 9.11 6.89 10.00 8.00 10.00C9.11 10.00 10.00 9.11 10.00 8.00C10.00 6.89 9.11 6.00 8.00 6.00ZM13.00 6.00C11.89 6.00 11.00 6.89 11.00 8.00C11.00 9.11 11.89 10.00 13.00 10.00C14.11 10.00 15.00 9.11 15.00 8.00C15.00 6.89 14.11 6.00 13.00 6.00ZM13.00 6.00'
stroke='none'
fill='rgb(0,0,0)'
gpa:fill='foreground'/>
  <path d='M6.00 0.00C5.45 0.00 5.00 0.45 5.00 1.00L5.00 4.00C5.00 4.55 5.45 5.00 6.00 5.00L10.00 5.00C10.55 5.00 11.00 4.55 11.00 4.00L11.00 1.00C11.00 0.45 10.55 0.00 10.00 0.00ZM2.00 10.82L2.00 11.00L1.00 11.00C0.45 11.00 0.00 11.45 0.00 12.00L0.00 15.00C0.00 15.55 0.45 16.00 1.00 16.00L5.00 16.00C5.55 16.00 6.00 15.55 6.00 15.00L6.00 12.00C6.00 11.45 5.55 11.00 5.00 11.00L3.00 11.00C2.65 11.00 2.31 10.94 2.00 10.82ZM14.00 10.82C13.69 10.94 13.35 11.00 13.00 11.00L11.00 11.00C10.45 11.00 10.00 11.45 10.00 12.00L10.00 15.00C10.00 15.55 10.45 16.00 11.00 16.00L15.00 16.00C15.55 16.00 16.00 15.55 16.00 15.00L16.00 12.00C16.00 11.45 15.55 11.00 15.00 11.00L14.00 11.00ZM14.00 10.82'
stroke='none'
fill='rgb(0,0,0)'
gpa:fill='foreground'/>
</svg>
